/* XPM: a Game Boy, for the Grifo launcher. */
static char *gameboy_icon[] = {
"64 64 2 1",
". c #FFFFFF",
"# c #000000",
"................................................................",
"................................................................",
"..............####################################..............",
"..............####################################..............",
"..............##................................##..............",
"..............##................................##..............",
"..............##..############################..##..............",
"..............##..############################..##..............",
"..............##..############################..##..............",
"..............##..####....................####..##..............",
"..............##..####....................####..##..............",
"..............##..####....................####..##..............",
"..............##..####....................####..##..............",
"..............##..####....................####..##..............",
"..............##..####....................####..##..............",
"..............##..####....................####..##..............",
"..............##..####....................####..##..............",
"..............##..####....................####..##..............",
"..............##..####....................####..##..............",
"..............##..####......####..........####..##..............",
"..............##..####......####..........####..##..............",
"..............##..####......####..........####..##..............",
"..............##..####......####..........####..##..............",
"..............##..####......####..........####..##..............",
"..............##..############################..##..............",
"..............##..####....................####..##..............",
"..............##..####.#.#.#.#.#.#.#.#.#..####..##..............",
"..............##..####....................####..##..............",
"..............##..############################..##..............",
"..............##..############################..##..............",
"..............##..############################..##..............",
"..............##................................##..............",
"..............##................................##..............",
"..............##................................##..............",
"..............##................................##..............",
"..............##................................##..............",
"..............##................................##..............",
"..............##.....###.................###....##..............",
"..............##.....###................#####...##..............",
"..............##.....###................#####...##..............",
"..............##..#########........###..#####...##..............",
"..............##..#########.......#####..###....##..............",
"..............##..#########.......#####.........##..............",
"..............##.....###..........#####.........##..............",
"..............##.....###...........###..........##..............",
"..............##.....###........................##..............",
"..............##................................##..............",
"..............##................................##..............",
"..............##................................##..............",
"..............##................................##..............",
"..............##.........####..####.............##..............",
"..............##.........####..####.............##..............",
"..............##................................##..............",
"..............##...........................#....##..............",
"..............##........................#..#....##..............",
"..............##.....................#..#..#....##..............",
"..............##..................#..#..#..#...##...............",
"..............##..................#..#..#......##...............",
"..............##..................#..#........##................",
"..............##..................#.........####................",
"..............################################..................",
"..............##############################....................",
"................................................................",
"................................................................"
};
