/* XPM: compact Macintosh for the Grifo launcher. */
static char *minivmac_icon[] = {
"64 64 2 1",
". c #FFFFFF",
"# c #000000",
"................................................................",
"................................................................",
"................................................................",
"................................................................",
"................................................................",
"................................................................",
"................................................................",
"................................................................",
"................................................................",
"................................................................",
"................................................................",
"................................................................",
"................................................................",
"................................................................",
"................################################................",
"...............#................................#...............",
"..............#..................................#..............",
"..............#....##########################....#..............",
"..............#....#........................#....#..............",
"..............#....#........................#....#..............",
"..............#....#...####.................#....#..............",
"..............#....#...####.................#....#..............",
"..............#....#........................#....#..............",
"..............#....#................####....#....#..............",
"..............#....#.................###....#....#..............",
"..............#....#.....########....###....#....#..............",
"..............#....#........................#....#..............",
"..............#....#........................#....#..............",
"..............#....##########################....#..............",
"..............#..................................#..............",
"..............#......######......................#..............",
"..............#......#....#......................#..............",
"..............#......######..............####....#..............",
"..............#..........................####....#..............",
"..............#..................................#..............",
"..............####################################..............",
"................#..............................#................",
"................#..............................#................",
"................################################................",
"................................................................",
".....................########......########.....................",
"....................#........#....#........#....................",
".....................########......########.....................",
"................................................................",
"................................................................",
"................................................................",
"................................................................",
"................................................................",
"................................................................",
"................................................................",
"................................................................",
"................................................................",
"................................................................",
"................................................................",
"................................................................",
"................................................................",
"................................................................",
"................................................................",
"................................................................",
"................................................................",
"................................................................",
"................................................................",
"................................................................",
"................................................................"
};
