/* Kiwix logo v3, CC BY-SA 4.0, https://commons.wikimedia.org/wiki/File:Kiwix_logo_v3.svg
   rendered at 64x64 and thresholded to one bit for the WikiReader launcher */
/* XPM */
static char * zimbench_xpm[] = {
"64 64 2 1",
" 	c #000000",
".	c #FFFFFF",
"                                                                ",
"                                                                ",
"                                                                ",
"                                                                ",
"                                                                ",
"                                                                ",
"                                                                ",
"                                                                ",
"               .........                                        ",
"            ...............                                     ",
"          ....................                                  ",
"         ......................                                 ",
"        .........................                               ",
"      ............................                              ",
"      ....................................                      ",
"     .......................................                    ",
"    .........................................                   ",
"    ..........................................                  ",
"   ....................................  ......                 ",
"   ...................................    .....                 ",
"  ...................................      .....                ",
"  ...................................  ... .....                ",
"  ...................................  .........                ",
"  .................................... .........                ",
"  ..............................................                ",
"  ................................................              ",
"  .................................................             ",
"  ..................................................            ",
"   ..........................................    .....          ",
"   .........................................       ....         ",
"   .......................................          ....        ",
"    .................            ......              ....       ",
"    ..............                                    ...       ",
"     .............                                     ...      ",
"      .............                .......              ...     ",
"      .............              ...........             ...    ",
"       ............            ..............             ..    ",
"        .....   ....          ................            ...   ",
"         ...     ...          .................            ..   ",
"         ...     ...         ..................            ...  ",
"         ...     ....        ...................            ..  ",
"          ...     ...       ....................            ..  ",
"          ...     ...       ....................                ",
"          ...     ...       ....................                ",
"          ....     ...      ....................                ",
"           ...     ...      ....................                ",
"           ...     ....     ....................                ",
"           ...   ...............................                ",
"            ... ...............................                 ",
"            ...       .....   ................                  ",
"            ....        ....   ...............                  ",
"         ...............  ...   .............                   ",
"         ...............         ..........                     ",
"               .....               ......                       ",
"                  ...                                           ",
"                    .                                           ",
"                                                                ",
"                                                                ",
"                                                                ",
"                                                                ",
"                                                                ",
"                                                                ",
"                                                                ",
"                                                                "};
