/* NuttX launcher icon: a terminal window with a prompt.
   Drawn for this port; no upstream logo is used. */
/* XPM */
static char * nuttx_xpm[] = {
"64 64 2 1",
" \tc #FFFFFF",
".\tc #000000",
"                                                                ",
"                                                                ",
"                                                                ",
"                                                                ",
"                                                                ",
"  ............................................................  ",
"  ............................................................  ",
"  ............................................................  ",
"  ............................................................  ",
"  ............................................................  ",
"  ............................................................  ",
"  .......    ....    ....    .................................  ",
"  .......    ....    ....    .................................  ",
"  .......    ....    ....    .................................  ",
"  .......    ....    ....    .................................  ",
"  ............................................................  ",
"  ............................................................  ",
"  ............................................................  ",
"  ...                                                      ...  ",
"  ...                                                      ...  ",
"  ...                                                      ...  ",
"  ...                                                      ...  ",
"  ...                                                      ...  ",
"  ...                                                      ...  ",
"  ...                                                      ...  ",
"  ...                                                      ...  ",
"  ...       ....                                           ...  ",
"  ...        ....                                          ...  ",
"  ...         ....                                         ...  ",
"  ...          ....                                        ...  ",
"  ...           ....             ....................      ...  ",
"  ...            ....            ....................      ...  ",
"  ...             ....           ....................      ...  ",
"  ...              ....          ....................      ...  ",
"  ...               ....         ....................      ...  ",
"  ...                ....        ....................      ...  ",
"  ...                 ....       ....................      ...  ",
"  ...                  ....      ....................      ...  ",
"  ...                   ....     ....................      ...  ",
"  ...                   ....     ....................      ...  ",
"  ...                  ....      ....................      ...  ",
"  ...                 ....       ....................      ...  ",
"  ...                ....        ....................      ...  ",
"  ...               ....         ....................      ...  ",
"  ...              ....          ....................      ...  ",
"  ...             ....           ....................      ...  ",
"  ...            ....            ....................      ...  ",
"  ...           ....             ....................      ...  ",
"  ...          ....                                        ...  ",
"  ...         ....                                         ...  ",
"  ...        ....                                          ...  ",
"  ...       ....                                           ...  ",
"  ...                                                      ...  ",
"  ...                                                      ...  ",
"  ...                                                      ...  ",
"  ...                                                      ...  ",
"  ............................................................  ",
"  ............................................................  ",
"  ............................................................  ",
"                                                                ",
"                                                                ",
"                                                                ",
"                                                                ",
"                                                                "};
