/* XPM: the DOOM wordmark, for the Grifo launcher.
   Generated by make-icon.py from doom-logo.webp; edit that. */
static char *doom_icon[] = {
"64 64 2 1",
". c #FFFFFF",
"# c #000000",
"................................................................",
"................................................................",
"................................................................",
"................................................................",
"................................................................",
"................................................................",
"................................................................",
"................................................................",
"................................................................",
"................................................................",
"................................................................",
"................................................................",
"................................................................",
"................................................................",
"................................................................",
".###############...############..############..######...#######.",
"..###############.###################################..#######..",
"...##################################################..######...",
"...###################################################.######...",
"...###################################################.######...",
"...##########################################################...",
"...#####....###########...############...####################...",
"...#####....###########...############...####################...",
"...#####....###########...############...####################...",
"...#####....###########...############...####################...",
"...#####....###########...############...####################...",
"...#####....###########...############...####################...",
"...#####....###########...############...####################...",
"...#####....###########...############...####################...",
"...#####....###########...############...####################...",
"...#####....###########...############...####################...",
"...#####....###########...############...####################...",
"...#####....###########...############...####################...",
"...#####...#############..############..#####################...",
"...#####.################.############.######################...",
"...#################################################.##.#####...",
"...##############.############################.#####.##.#####...",
"...##############...########################...#####..#.#####...",
"...############......######################......###....#####...",
"...###########........#########..#########........##....#####...",
"...##########...........######....#######..........#....#####...",
"...########..............####.......###.................#####...",
"...#######................#..........#..................#####...",
"...######...............................................#####...",
"...####..................................................####...",
"...###....................................................###...",
"...##......................................................##...",
"................................................................",
"................................................................",
"................................................................",
"................................................................",
"................................................................",
"................................................................",
"................................................................",
"................................................................",
"................................................................",
"................................................................",
"................................................................",
"................................................................",
"................................................................",
"................................................................",
"................................................................",
"................................................................",
"................................................................"
};
