/* XPM: launcher icon for the interpreter benchmark.
   Generated by make-icons.py; edit that, not this. */
static char *riscv_icon[] = {
"64 64 2 1",
". c #FFFFFF",
"# c #000000",
"################################################################",
"################################################################",
"##............................................................##",
"##............................................................##",
"##............................................................##",
"##............................................................##",
"##............................................................##",
"##............................................................##",
"##............................................................##",
"##............................................................##",
"##............................................................##",
"##............................................................##",
"##............................................................##",
"##............................................................##",
"##....................######......##....##....................##",
"##....................######......##....##....................##",
"##....................##....##....##....##....................##",
"##....................##....##....##....##....................##",
"##....................##....##....##....##....................##",
"##....................##....##....##....##....................##",
"##....................######......########....................##",
"##....................######......########....................##",
"##....................##....##......####......................##",
"##....................##....##......####......................##",
"##....................##....##......####......................##",
"##....................##....##......####......................##",
"##............................................................##",
"##............................................................##",
"##............................................................##",
"##............................................................##",
"##............................................................##",
"##............................................................##",
"##............................................................##",
"##............................................................##",
"##............................................................##",
"##....................########......####......................##",
"##....................########......####......................##",
"##........................##......##....##....................##",
"##........................##......##....##....................##",
"##......................####............##....................##",
"##......................####............##....................##",
"##..........................##........##......................##",
"##..........................##........##......................##",
"##..........................##......##........................##",
"##..........................##......##........................##",
"##....................######......########....................##",
"##....................######......########....................##",
"##............................................................##",
"##............................................................##",
"##............................................................##",
"##............................................................##",
"##............................................................##",
"##............................................................##",
"##............................................................##",
"##............................................................##",
"##............................................................##",
"##............................................................##",
"##............................................................##",
"##............................................................##",
"##............................................................##",
"##............................................................##",
"##............................................................##",
"################################################################",
"################################################################"
};
