/* XPM: launcher icon for the translator probe.
   Generated by make-icons.py; edit that, not this. */
static char *rvjit_icon[] = {
"64 64 2 1",
". c #FFFFFF",
"# c #000000",
"################################################################",
"################################################################",
"##............................................................##",
"##............................................................##",
"##............................................................##",
"##............................................................##",
"##............................................................##",
"##............................................................##",
"##............................................................##",
"##............................................................##",
"##............................................................##",
"##............................................................##",
"##............................................................##",
"##............................................................##",
"##................######....######....##########..............##",
"##................######....######....##########..............##",
"##..................##........##..........##..................##",
"##..................##........##..........##..................##",
"##..................##........##..........##..................##",
"##..................##........##..........##..................##",
"##..................##........##..........##..................##",
"##..................##........##..........##..................##",
"##............##....##........##..........##..................##",
"##............##....##........##..........##..................##",
"##..............####........######........##..................##",
"##..............####........######........##..................##",
"##............................................................##",
"##............................................................##",
"##............................................................##",
"##............................................................##",
"##............................................................##",
"##............................................................##",
"##............................................................##",
"##............................................................##",
"##............................................................##",
"##........######......######......######....########..........##",
"##........######......######......######....########..........##",
"##........##....##....##....##..##......##..##......##........##",
"##........##....##....##....##..##......##..##......##........##",
"##........##....##....##....##..##......##..########..........##",
"##........##....##....##....##..##......##..########..........##",
"##........######......######....##......##..##......##........##",
"##........######......######....##......##..##......##........##",
"##........##..........##....##..##......##..##......##........##",
"##........##..........##....##..##......##..##......##........##",
"##........##..........##....##....######....########..........##",
"##........##..........##....##....######....########..........##",
"##............................................................##",
"##............................................................##",
"##............................................................##",
"##............................................................##",
"##............................................................##",
"##............................................................##",
"##............................................................##",
"##............................................................##",
"##............................................................##",
"##............................................................##",
"##............................................................##",
"##............................................................##",
"##............................................................##",
"##............................................................##",
"##............................................................##",
"################################################################",
"################################################################"
};
