/* XPM: launcher icon for Linux: Tux, by Larry Ewing
   (lewing@isc.tamu.edu) with The GIMP, from tux_64x64.pbm.
   Generated by make-icons.py; edit that, not this. */
static char *rvlinux_icon[] = {
"64 64 2 1",
". c #FFFFFF",
"# c #000000",
"................................................................",
".............................#######............................",
"...........................###########..........................",
"..........................#############.........................",
".........................###############........................",
"........................################........................",
"........................#################.......................",
"........................#################.......................",
".......................##################.......................",
".......................##################.......................",
".......................###.#####....######......................",
".......................##...###......#####......................",
".......................#..#..##..##..#####......................",
".......................#..#..##..##..#####......................",
".......................#..#########..#####......................",
".......................##.#......##..#####......................",
".......................####........#######......................",
".......................##............#####......................",
".......................#..........##.#####......................",
".......................##.#......#...#####......................",
".......................##..##.###..#######......................",
".......................##.#......##...#####.....................",
"......................###..##..##.....######....................",
"......................###....##.......######....................",
".....................###...............######...................",
"....................####...............#######..................",
"....................####...............########.................",
"...................####.................#######.................",
"..................#####.................########................",
".................######..................########...............",
".................#####...................########...............",
"................######....................########..............",
"................#####.....................###.####..............",
"...............######......................########.............",
"...............##.##.......................###.####.............",
"..............###.##........................##.#####............",
"..............###.##........................##.#####............",
"..............###.#.........................##.#####............",
".............####.#.........................##.#####............",
".............####.#............................#####............",
".............####.#.........................##...###............",
".............####..........................######.##............",
".............#####........................########.#............",
".............#..###......................#.#######.#............",
"............#....###....................##.##########...........",
"...........#......####..................#..######...##..........",
".........###.......####.................#...###......#..........",
".......###.........#####................#............#..........",
".......#............#####...............#............##.........",
"......#.............#####...............#.............#.........",
"......#..............####..............##.............##........",
"......##..............###..............##..............#........",
"......##..............##...............#................#.......",
"......##...............#...............#................#.......",
"......#.................#.............##...............##.......",
"......#.................##..........###..............###........",
"......#..................####....######............###..........",
"......#..................##############...........##............",
".......####..............##############..........#..............",
".........#######.........#............#.........#...............",
"...............###......#..............#.......#................",
".................#######...............##....##.................",
"........................................#####...................",
"................................................................"
};
